X:1
T:Partition sans titre
C:Compositeur / Arrangeur
L:1/4
M:4/4
I:linebreak $
K:G
V:1 treble nm="Violon" snm="Vln."
V:1
"G" B d g a | g/f/ e d B | B/A/ B d c |"C" c/B/ c e d |"G" B d g a | g/f/ e d B | B/A/ B d c | %7
"C" E F"G" G2 ::"G" B/A/ B d c |"C" c/B/ c e d |"G" B/A/ B d c |"C" E F"G" G2 :| %12
